svgs/sharp-regular/pi.svg

<svg xmlns="http://www.w3.org/2000/svg" viewBox="0 0 448 512"><!--! Font Awesome Pro 6.6.0 by @fontawesome - https://fontawesome.com License - https://fontawesome.com/license (Commercial License) Copyright 2024 Fonticons, Inc. --><path d="M24 64L0 64l0 48 24 0 88 0 0 249.4L75.4 422.9l41.2 24.6 40-67.2 3.4-5.7 0-6.6 0-256 144 0 0 312 0 24 24 0 72 0 15.5 0 6.4-14.2 14.4-32 9.8-21.9-43.8-19.7-9.8 21.9-8 17.8L352 400l0-288 72 0 24 0 0-48-24 0L24 64z"/></svg>

<svg xmlns="http://www.w3.org/2000/svg" viewBox="0 0 448 512"><!--! Font Awesome Pro 6.4.0 by @fontawesome - https://fontawesome.com License - https://fontawesome.com/license (Commercial License) Copyright 2023 Fonticons, Inc. --><path d="M24 64H0v48H24h88V361.4L75.4 422.9l41.2 24.6 40-67.2 3.4-5.7V368 112H304V424v24h24 72 15.5l6.4-14.2 14.4-32 9.8-21.9-43.8-19.7-9.8 21.9-8 17.8H352V112h72 24V64H424 24z"/></svg>
